X: 11009
T: BARBARA'S REEL
C: Bob McQuillen 20 Jan 99
B: Bob's Note Book 11 #9
R: reel
Z: 2020 John Chambers <jc:trillian.mit.edu>
M: C
L: 1/8
K: G	% and D
BA \
| G2BG DGBG | EGAG FAdc | BGBd g2dc | BdBG AcBA |
| G2BG DGBG | EGAG FAdc | BGBd gedB | cAFA G2  :| [K:D]
|: FG \
| A2dc d4   | Adfd Bdfe | d2BA B4   | FABd BAFE |
| DFAF DGBG | FAdc d2de | fafd BdBA | FDEF D2  :|
%%begintext align
%% Barbara Williams
%% and caller Dave Bateman live not far from
%% here in Hudson, NH, and they usually show
%% up together at the dances. It's always good to
%% see them when they do come because they give me
%% nice hugs - you talk about the fringe benefits of
%% being an old piano player?! Hey - Thanks, guys! (:-)
%%endtext

%%sep 1 1 500

%%sep 1 1 500

